X:1
T:O Jesus, We Adore You
T:Text: Arthur T. Russel, 1851, alt. Tune: William Lloyd, 1840
T:76 76 D MEIRIONYDD www.hymnary.org/text/o_jesus_we_adore_thee_upon_the_cross_our
T:O Jesus, We Adore You
T:This hymn is in the public domain. You may freely use this score for personal and congregational worship. If you reproduce the score, please credit Hymnary.org as the source. 
T:This hymn is in the public domain. You may freely use this score for personal and congregational worship. If you reproduce the score, please credit Hymnary.org as the source. 
Z:This hymn is in the public domain. You may freely use this score for personal and congregational worship. If you reproduce the score, please credit Hymnary.org as the source.
%%score ( 1 2 ) ( 3 4 )
L:1/8
M:4/4
K:Eb
V:1 treble nm="SOPRANO ALTO" snm="S. A."
V:2 treble 
V:3 bass nm="TENOR BASS" snm="T. B."
V:4 bass 
V:1
"^1""^2""^3" BA | G2 GF E2 F2 | G4 G2 B2 | A2 G2 AG F2 | E6 | BA | G2 GF E2 F2 | G4 G2 B2 | %8
w: O *|Je- sus, * we a-|dore you, up-|on the cross, _ our|King.|We *|bow our * hearts be-|fore you; your|
w: The *|world does * yet dis-|dain you, still|pass- ing by * the|cross;|Lord, _|may our * hearts re-|tain you; all|
w: O *|glo- rious _ King, we|praise you, no|lon- ger pass * you|by;|O *|Je- sus, * we con-|fess you the|
 A2 G2 AG F2 | E6 | B2 | c2 B2 c2 d2 | e4 B2 G2 | B2 c2 B2 G2 | F6 |1 GF | E2 EF G2 GF | %17
w: gra- cious name * we|sing.|That|name has brought sal-|va- tion, that|name in life our|stay,|our *|peace, our * con- so- *|
w: else we count * but|loss.|Ah,|Lord, our sins ar-|raigned you and|nailed you to the|tree;|our *|pride, O * Lord, dis- *|
w: Son en- throned _ on|high.|Lord,|grant to us for-|give- ness; life|through your death re-|store;|yes, *|grant to * us the *|
 (G2 =A2) B2 E2 | G2 B2 AG F2 | E6 x2 |] %20
w: la- * tion, when|life shall fade _ a-|way.|
w: dained * you, yet|you have set * us|free.|
w: full- * ness of|life for- ev- * er-|more.|
V:2
 GF | E2 D2 C2 D2 | E4 E2 E2 | D2 E2 E2 D2 | E6 | F2 | E2 D2 C2 D2 | E4 E2 E2 | E2 E2 FE D2 | E6 | %10
 G2 | E2 E2 E2 F2 | E4 F2 E2 | E2 E2 E2 B,C | D6 |1 D2 | C2 E2 D2 E2 | E4 B,2 B,2 | E2 E2 E2 D2 | %19
 x6 x2 |] %20
V:3
 B,2 | B,2 B,A, G,2 B,2 | B,4 B,2 B,2 | B,2 B,2 CB, A,2 | G,6 | B,2 | B,2 B,A, G,2 B,2 | %7
 B,4 B,2 B,2 | C2 B,2 C2 F,2 | G,6 | E2 | C2 E2 CB, A,2 | (G,2 =A,2) B,2 B,2 | B,2 _A,2 B,2 B,2 | %14
 B,6 |1 G,2 | G,2 B,2 B,2 C2 | (B,2 E,2) F,2 G,2 | C2 B,2 C2 F,2 | G,6 x2 |] %20
V:4
 E,2 | E,2 B,,2 C,2 B,,2 | E,4 E,2 G,2 | F,2 E,2 A,,2 B,,2 | E,6 | D,2 | E,2 B,,2 C,2 B,,2 | %7
 E,4 E,2 G,2 | C,2 E,2 A,,2 B,,2 | E,6 | E,2 | A,2 G,2 A,G, F,2 | C,4 D,2 E,2 | G,2 A,2 G,2 E,2 | %14
 B,,6 |1 B,,2 | C,2 C,2 B,,2 A,,2 | (E,D, C,2) D,2 E,2 | C,2 G,,2 A,,2 B,,2 | E,6 x2 |] %20

